packages/calcite-ui-icons/icons/mosaic-method-mean-16.svg

<?xml version="1.0" encoding="UTF-8"?><svg id="icons" xmlns="http://www.w3.org/2000/svg" viewBox="0 0 16 16"><defs><style>.cls-1{fill:none;}.cls-2{opacity:.5;}.cls-3{opacity:.25;}</style></defs><path class="cls-2" d="M9,3v1h1v-1h-1Z"/><path class="cls-3" d="M8,1v1h-.99957c-.00018-.00031-.00024-.00043-.00043-.00067v-.99866c.00018-.00031.00024-.00043.00043-.00067h.99957ZM5,1.00067v.99866c.00018.00024.00024.00037.00043.00067h.99957v-1h-.99957c-.00018.00024-.00024.00037-.00043.00067ZM7,4h1v-1h-1v1ZM3,7h1v-1h-1v1ZM1,5h1v-1h-1v1Z"/><path d="M11,0h-7v5h7V0ZM6,4h-1v-1h1v1ZM6,2h-1v-1h1v1ZM8,4h-1v-1h1v1ZM8,2h-1v-1h1v1ZM10,4h-1v-1h1v1ZM10,2h-1v-1h1v1ZM3,3H0v5h4v-1h-1V3ZM2,7h-1v-1h1v1ZM2,5h-1v-1h1v1ZM10,11h-1v-1h1v1ZM11,10h1v1h-1v-1ZM14,11h-1v-1h1v1ZM16,10v1h-1v-1h1ZM8,10v1h-1v-1h1ZM6,15h10v1H5V6h1v9ZM7,13.15002c.0271-.00183.78638-.03943,1.76758-.91174.06952-.06183.13531-.14557.19952-.23828h.81c-.15796.31049-.33527.57581-.54468.76172-1.20996,1.07617-2.19141,1.08789-2.23242,1.08789v-.69958ZM11.5,7.15039c.69843,0,1.07385.79938,1.41852,1.84961h-.73944c-.21326-.61108-.45508-1.15039-.67908-1.15039s-.46582.53931-.67908,1.15039h-.73944c.34467-1.05023.72009-1.84961,1.41852-1.84961ZM14.23242,12.23828c.9812.87231,1.74048.90991,1.76758.91174v.69958c-.04102,0-1.02246-.01172-2.23242-1.08789-.20941-.18591-.38672-.45123-.54468-.76172h.81c.06421.09271.13.17645.19952.23828Z"/><rect class="cls-1" width="16" height="16"/></svg>

<svg xmlns="http://www.w3.org/2000/svg" viewBox="0 0 16 16"><path d="M9 3v1h1V3H9z" opacity=".5"/><path d="M8 1v1H7V1h1zM5 1v1h1V1H5zm2 3h1V3H7v1zM3 7h1V6H3v1zM1 5h1V4H1v1z" opacity=".25"/><path d="M11 0H4v5h7V0zM6 4H5V3h1v1zm0-2H5V1h1v1zm2 2H7V3h1v1zm0-2H7V1h1v1zm2 2H9V3h1v1zm0-2H9V1h1v1zM3 3H0v5h4V7H3V3zM2 7H1V6h1v1zm0-2H1V4h1v1zm8 6H9v-1h1v1zm1-1h1v1h-1v-1zm3 1h-1v-1h1v1zm2-1v1h-1v-1h1zm-8 0v1H7v-1h1zm-2 5h10v1H5V6h1v9zm1-1.85c.027-.002.786-.04 1.768-.912.07-.062.135-.145.2-.238h.81c-.159.31-.336.576-.546.762C8.022 13.838 7.041 13.85 7 13.85v-.7zm4.5-6c.698 0 1.074.8 1.419 1.85h-.74c-.213-.611-.455-1.15-.679-1.15s-.466.539-.68 1.15h-.739c.345-1.05.72-1.85 1.419-1.85zm2.732 5.088c.982.873 1.74.91 1.768.912v.7c-.041 0-1.022-.012-2.232-1.088-.21-.186-.387-.452-.545-.762h.81c.064.093.13.176.2.238z"/><path fill="none" d="M0 0h16v16H0z"/></svg>
